assets/icons/selection.svg

<?xml version="1.0" encoding="UTF-8" standalone="no"?>
<svg viewBox="0 0 24 24" height="24" id="svg7384" version="1.1" width="24" sodipodi:docname="selection.svg" inkscape:version="1.1 (ce6663b3b7, 2021-05-25)"
   xmlns:inkscape="http://www.inkscape.org/namespaces/inkscape"
   xmlns:sodipodi="http://sodipodi.sourceforge.net/DTD/sodipodi-0.dtd"
   xmlns="http://www.w3.org/2000/svg"
   xmlns:svg="http://www.w3.org/2000/svg"
   xmlns:rdf="http://www.w3.org/1999/02/22-rdf-syntax-ns#"
   xmlns:cc="http://creativecommons.org/ns#"
   xmlns:dc="http://purl.org/dc/elements/1.1/">
   <sodipodi:namedview pagecolor="#ffffff" bordercolor="#666666" borderopacity="1" objecttolerance="10" gridtolerance="10" guidetolerance="10" inkscape:pageopacity="0" inkscape:pageshadow="2" inkscape:window-width="1920" inkscape:window-height="1016" id="namedview27" showgrid="true" inkscape:zoom="17.854446" inkscape:cx="-4.6767063" inkscape:cy="8.0372138" inkscape:window-x="0" inkscape:window-y="27" inkscape:window-maximized="1" inkscape:current-layer="svg7384" inkscape:pagecheckerboard="0" inkscape:snap-page="true">
      <inkscape:grid type="xygrid" id="grid859" />
   </sodipodi:namedview>
   <metadata id="metadata20854">
      <rdf:RDF>
         <cc:Work rdf:about="">
            <dc:format>image/svg+xml</dc:format>
            <dc:type rdf:resource="http://purl.org/dc/dcmitype/StillImage" />
         </cc:Work>
      </rdf:RDF>
   </metadata>
   <defs id="defs7386">
      <linearGradient id="linearGradient5606" inkscape:swatch="solid">
         <stop id="stop5608" offset="0" style="stop-color:#000000;stop-opacity:1;" />
      </linearGradient>
      <linearGradient id="linearGradient4526" inkscape:swatch="solid">
         <stop id="stop4528" offset="0" style="stop-color:#ffffff;stop-opacity:1;" />
      </linearGradient>
      <linearGradient id="linearGradient3600-4" inkscape:swatch="gradient">
         <stop id="stop3602-7" offset="0" style="stop-color:#f4f4f4;stop-opacity:1" />
         <stop id="stop3604-6" offset="1" style="stop-color:#dbdbdb;stop-opacity:1" />
      </linearGradient>
   </defs>
   <g id="layer9" label="status" style="display:inline;stroke-width:0.8;fill:#808080;fill-opacity:1" transform="matrix(1.25,0,0,1.25,-364.25025,285.75)" />
   <g id="layer2" style="display:inline;stroke-width:0.8;fill:#808080;fill-opacity:1" transform="matrix(1.25,0,0,1.25,-63,-173)" />
   <g id="layer4" style="display:inline;stroke-width:0.8;fill:#808080;fill-opacity:1" transform="matrix(1.25,0,0,1.25,-63,-173)" />
   <g id="g1812" style="display:inline;stroke-width:0.8;fill:#808080;fill-opacity:1" transform="matrix(1.25,0,0,1.25,-63,-173)" />
   <g id="g6217" style="display:inline;stroke-width:0.8;fill:#808080;fill-opacity:1" transform="matrix(1.25,0,0,1.25,-63,-173)" />
   <g id="layer3" style="display:inline;stroke-width:0.8;fill:#808080;fill-opacity:1" transform="matrix(1.25,0,0,1.25,-63,-173)" />
   <g id="g1833" style="display:inline;stroke-width:0.8;fill:#808080;fill-opacity:1" transform="matrix(1.25,0,0,1.25,-63,-173)" />
   <path id="rect62" style="fill:#808080;fill-rule:evenodd;stroke-width:1.5;stroke-linecap:square;stroke-linejoin:round;fill-opacity:1" d="M 4 6 C 3.7626566 6 3.5370483 6.043926 3.3261719 6.1191406 L 4.2324219 7.0253906 C 4.3193679 7.0098266 4.4084426 7 4.5 7 L 6 7 L 6 6 L 4 6 z M 7 6 L 7 7 L 8 7 L 8 6 L 7 6 z M 2.4863281 6.6933594 C 2.1838879 7.0435884 2 7.4988259 2 8 L 2 9 L 3 9 L 3 8.5 C 3 8.1374251 3.1272429 7.8056595 3.3398438 7.546875 L 2.4863281 6.6933594 z M 2 10 L 2 12 L 3 12 L 3 10 L 2 10 z M 2 13 L 2 15 L 3 15 L 3 13 L 2 13 z M 2 16 L 2 18 L 3 18 L 3 16 L 2 16 z M 17 16 L 17 18 L 18 18 L 18 16 L 17 16 z M 2 19 L 2 20 C 2 20.237343 2.043925 20.462952 2.1191406 20.673828 L 3.0253906 19.767578 C 3.0098266 19.680628 3 19.591557 3 19.5 L 3 19 L 2 19 z M 17 19 L 17 19.5 C 17 19.59156 16.990199 19.680632 16.974609 19.767578 L 17.880859 20.673828 C 17.956079 20.462952 18 20.237343 18 20 L 18 19 L 17 19 z M 3.546875 20.660156 L 2.6933594 21.513672 C 3.0435884 21.816112 3.4988259 22 4 22 L 6 22 L 6 21 L 4.5 21 C 4.1374251 21 3.8056595 20.872757 3.546875 20.660156 z M 16.453125 20.660156 C 16.19434 20.872757 15.862575 21 15.5 21 L 13 21 L 13 22 L 16 22 C 16.501174 22 16.956412 21.816112 17.306641 21.513672 L 16.453125 20.660156 z M 7 21 L 7 22 L 9 22 L 9 21 L 7 21 z M 10 21 L 10 22 L 12 22 L 12 21 L 10 21 z " />
   <path id="rect502" style="fill:#808080;fill-rule:evenodd;stroke-width:1.5;stroke-linecap:square;stroke-linejoin:round;fill-opacity:1" d="M 10 2 C 8.892 2 8 2.892 8 4 L 8 6 L 9 6 L 9 7 L 8 7 L 8 14 C 8 15.108 8.892 16 10 16 L 17 16 L 18 16 L 20 16 C 21.108 16 22 15.108 22 14 L 22 4 C 22 2.892 21.108 2 20 2 L 10 2 z M 10 6 L 12 6 L 12 7 L 10 7 L 10 6 z M 13 6 L 16 6 C 16.237343 6 16.462952 6.0439256 16.673828 6.1191406 L 15.767578 7.0253906 C 15.680632 7.0098296 15.59156 7 15.5 7 L 13 7 L 13 6 z M 17.513672 6.6933594 C 17.816112 7.0435884 18 7.4988259 18 8 L 18 9 L 17 9 L 17 8.5 C 17 8.1374251 16.872757 7.8056595 16.660156 7.546875 L 17.513672 6.6933594 z M 17 10 L 18 10 L 18 12 L 17 12 L 17 10 z M 17 13 L 18 13 L 18 15 L 17 15 L 17 13 z " />
</svg>

<svg height="24" width="24" xmlns="http://www.w3.org/2000/svg"><path style="fill:gray;stroke-width:1.5;stroke-linecap:square;stroke-linejoin:round;fill-opacity:1" d="M4 6c-.237 0-.463.044-.674.12l.906.905A1.58 1.58 0 0 1 4.5 7H6V6H4zm3 0v1h1V6H7zm-4.514.693A1.99 1.99 0 0 0 2 8v1h1v-.5c0-.363.127-.694.34-.953l-.854-.854zM2 10v2h1v-2H2zm0 3v2h1v-2H2zm0 3v2h1v-2H2zm15 0v2h1v-2h-1zM2 19v1c0 .237.044.463.12.674l.905-.906A1.515 1.515 0 0 1 3 19.5V19H2zm15 0v.5c0 .092-.01.18-.025.268l.906.906c.075-.211.119-.437.119-.674v-1h-1zM3.547 20.66l-.854.854C3.043 21.816 3.5 22 4 22h2v-1H4.5c-.363 0-.694-.127-.953-.34zm12.906 0c-.259.213-.59.34-.953.34H13v1h3a1.99 1.99 0 0 0 1.307-.486l-.854-.854zM7 21v1h2v-1H7zm3 0v1h2v-1h-2zm0-19c-1.108 0-2 .892-2 2v2h1v1H8v7c0 1.108.892 2 2 2h10c1.108 0 2-.892 2-2V4c0-1.108-.892-2-2-2H10zm0 4h2v1h-2V6zm3 0h3c.237 0 .463.044.674.12l-.906.905A1.515 1.515 0 0 0 15.5 7H13V6zm4.514.693C17.816 7.043 18 7.5 18 8v1h-1v-.5c0-.363-.127-.694-.34-.953l.854-.854zM17 10h1v2h-1v-2zm0 3h1v2h-1v-2z"/></svg>
